!!!OTL: Der trunkene Bruder
!!!ARE: Europa, Mitteleuropa, Deutschland
!!!SCT: A0345
!!!YEM: Copyright 1995, estate of Helmut Schaffrath.
**kern
*ICvox
*Ivox
!! Mixed meters:  4/2; 6/2
*M4/2
*k[b-]
*d:
{2d
=1
4d
4e
4fn
4g
2a
2a
=2
1a
2b
[2ccn
=3
2ccn]
4b
4a
2b
2b
=4
1a
2r}
{2dd
=5
2dd
2dd
1ccn
=6
2dd
1ffn
4ee
4dd
=7
1ee
2dd}
{2d
=8
4d
4e
4fn
4g
2a
2a
=9
1a
2b
[2ccn
=10
2ccn]
4b
4a
2b
2b
=11
1a
2r}
{2dd
=12
2dd
2dd
1cc#
=13
2dd
1ffn
4ee
4dd
=14
1ee
1dd}
=15
{2r
2ffn
2.ee
4dd
=16
2ccn
2b
2a
2ccn
=17
*M6/2
2dd
2.ee
4dd
1dd
2cc#
=18
*M4/2
1dd
2r}
{2a
=19
2a
2a
2a
2a
=20
1b
1a
=21
2r
2a
2a
2a
=22
1ccn
2r}
{2ccn
=23
2ccn
2ccn
1g
=24
2r
2g
2g
2g
=25
2.b
4ccn
1dd
=26
1a
2r}
{2ffn
=27
2ffn
2ffn
2ee
2dd
=28
1ee
2dd}
==
!!!AGN: Romanze, Ballade, Lied, Trinklied
!! Reutterliedlein 1535 No. 17.
!!!ONB: ESAC (Essen Associative Code) Database: ALTDEU
!!!AMT: irregular
!!!AIN: vox
!!!EED: Helmut Schaffrath
!!!EEV: 1.0
*-
